src/pug/blocks/nav/behance.svg

<svg width="32" height="32" viewBox="0 0 32 32" fill="none" xmlns="http://www.w3.org/2000/svg">
<path fill-rule="evenodd" clip-rule="evenodd" d="M10.75 7.08894L3 7V23.7014H11.2825C11.2825 23.7014 15.8821 23.6592 16.3511 19.5693C16.8201 15.4794 13.4519 14.6866 13.4519 14.6866C13.4519 14.6866 16.1792 13.8594 15.5925 10.3578C15.0061 6.85634 10.75 7.08894 10.75 7.08894ZM19.9578 9.64542V7.90558H26.6738V9.64542H19.9578ZM6.52588 13.6471L9.73291 13.6678C9.93823 13.6678 10.4778 13.6493 10.9216 13.5407C11.1118 13.4942 11.4814 13.362 11.7368 13.1235C11.8428 13.0244 12.0381 12.7454 12.1506 12.4147C12.2603 12.0934 12.2888 11.7208 12.2888 11.5779C12.2888 11.3162 12.2427 11.074 12.1506 10.8512C12.0588 10.6284 11.9207 10.4357 11.7368 10.273C11.5527 10.1104 11.3188 9.98305 11.0349 9.8911C10.751 9.79916 10.4128 9.75319 10.021 9.75319L6.52588 9.73245V13.6471ZM10.0298 20.6934L6.52588 20.6705V16.3438L10.3445 16.3667C10.7727 16.3667 11.1418 16.4175 11.4521 16.5192C11.7625 16.6208 12.0181 16.7615 12.219 16.9413C12.4202 17.1211 12.5708 17.3341 12.6714 17.5803C12.7717 17.8266 12.822 18.0943 12.822 18.3835C12.822 18.5415 12.791 18.9532 12.6714 19.3084C12.5483 19.6739 12.335 19.9823 12.219 20.0918C11.9402 20.3553 11.5361 20.5015 11.3286 20.5529C10.8438 20.6729 10.2542 20.6934 10.0298 20.6934ZM20.6982 18.4459L20.699 18.4648C20.7053 18.7107 20.7654 20.9615 22.595 21.4929C24.7969 22.1325 25.7781 20.2372 25.8542 20.0176H28.7385C28.6638 20.3776 27.4915 25.2781 21.1128 23.681C17.3335 22.7347 17.3894 18.2263 17.3979 17.5435L17.3984 17.4849C17.3984 17.106 17.4143 15.0905 18.9919 13.2319C20.5698 11.3733 22.8162 11.3733 23.2712 11.3733C23.7261 11.3733 26.0657 11.3733 27.4915 13.0135C29.3362 15.1357 28.9705 18.5361 28.9705 18.5361L20.6982 18.4459ZM25.5325 15.3043C25.6553 15.6213 25.728 15.9678 25.7505 16.3438H20.7974C20.8198 15.9899 20.8962 15.6564 21.0266 15.343C21.157 15.0297 21.3303 14.7533 21.5464 14.5137C21.7627 14.2741 22.0142 14.0842 22.3013 13.9442C22.5881 13.8041 22.8994 13.7341 23.2349 13.7341C23.6074 13.7341 23.9448 13.8004 24.2466 13.9331C24.5486 14.0658 24.8074 14.2483 25.0237 14.4805C25.2397 14.7127 25.4094 14.9873 25.5325 15.3043Z" fill="#2C3134"/>
</svg>

<svg xmlns="http://www.w3.org/2000/svg" width="32" height="32" viewBox="0 0 32 32">
    <path fill-rule="evenodd" d="M10.75 7.089L3 7v16.701h8.283s4.6-.042 5.068-4.132c.47-4.09-2.9-4.882-2.9-4.882s2.728-.828 2.141-4.33c-.586-3.5-4.842-3.268-4.842-3.268zm9.208 2.556v-1.74h6.716v1.74h-6.716zM6.526 13.647l3.207.02c.205 0 .745-.018 1.189-.126.19-.047.56-.179.815-.418.106-.099.301-.378.414-.708.11-.322.138-.694.138-.837 0-.262-.046-.504-.138-.727a1.554 1.554 0 0 0-.414-.578 1.955 1.955 0 0 0-.702-.382 3.308 3.308 0 0 0-1.014-.138l-3.495-.02v3.914zm3.504 7.046l-3.504-.023v-4.326l3.819.023c.428 0 .797.05 1.107.152.31.102.566.243.767.422.201.18.352.393.452.64.1.246.151.513.151.803 0 .157-.031.57-.15.924-.124.366-.337.674-.453.784-.279.263-.683.41-.89.46-.485.12-1.075.141-1.3.141zm10.668-2.247l.001.019c.006.246.066 2.497 1.896 3.028 2.202.64 3.183-1.256 3.26-1.475h2.883c-.074.36-1.247 5.26-7.625 3.663-3.78-.946-3.724-5.455-3.715-6.137v-.06c0-.378.016-2.394 1.594-4.252 1.578-1.859 3.824-1.859 4.28-1.859.454 0 2.794 0 4.22 1.64 1.844 2.123 1.479 5.523 1.479 5.523l-8.273-.09zm4.834-3.142c.123.317.196.664.218 1.04h-4.953c.023-.354.1-.688.23-1.001.13-.313.303-.59.52-.83.216-.239.467-.429.754-.569.287-.14.598-.21.934-.21.372 0 .71.066 1.012.2.302.132.56.314.777.546.216.233.385.507.508.824z"/>
</svg>
